X: 318
T: Beyâtî-Arabân Seyir
C: Erol Bingöl
O: Turkey
F: http://compmusic.upf.edu/node/140
N: beyati-araban--seyir--turkaksagi--1--erol_bingol
N: makam= beyati-araban
N: form= seyir
N: usul= turkaksagi = 5/8
M: 5/8
L: 1/16
K: C _1/4B _7/8e ^f 
Q: 1/4=120
%%MIDI tuningsystem comma53
g3a a4 _7/8b2 | ag ^3/4fga6  | _7/8b2a2 d'^c'ba g2 | \
w:   |   |   | 
^3/4f_3/4e edd4z2  | 
w:   | 
=f4 f4 f2 | =f2 =e2ag fed2  | c2_2/4B2 =e2d2 c2 | \
w:   |   |   | 
c_2/4B BAA6  | |


